public/build/img/icMultiCanalD.svg

<svg xmlns="http://www.w3.org/2000/svg" xmlns:xlink="http://www.w3.org/1999/xlink" width="500" zoomAndPan="magnify" viewBox="0 0 375 374.999991" height="500" preserveAspectRatio="xMidYMid meet" version="1.0"><defs><clipPath id="18fb3fbde6"><path d="M 121.125 112.5 L 253.875 112.5 L 253.875 262.5 L 121.125 262.5 Z M 121.125 112.5 " clip-rule="nonzero"/></clipPath></defs><g clip-path="url(#18fb3fbde6)"><path fill="#e08709" d="M 166.15625 216.292969 L 171.632812 216.292969 L 171.632812 199.003906 C 171.632812 197.746094 172.652344 196.722656 173.914062 196.722656 C 175.171875 196.722656 176.191406 197.746094 176.191406 199.003906 L 176.191406 216.292969 L 198.835938 216.292969 L 198.835938 199.003906 C 198.835938 197.746094 199.859375 196.722656 201.117188 196.722656 C 202.375 196.722656 203.394531 197.746094 203.394531 199.003906 L 203.394531 216.292969 L 208.875 216.292969 C 210.839844 216.292969 212.445312 214.6875 212.445312 212.722656 L 212.445312 193.644531 C 212.445312 188.097656 207.503906 184.945312 201.882812 183.550781 C 192.441406 181.210938 182.871094 181.050781 173.148438 183.550781 C 167.539062 184.996094 162.585938 188.09375 162.585938 193.644531 L 162.585938 212.722656 C 162.585938 214.6875 164.1875 216.292969 166.15625 216.292969 Z M 132.167969 208.417969 C 138.265625 208.417969 143.203125 213.359375 143.203125 219.453125 C 143.203125 225.546875 138.265625 230.488281 132.167969 230.488281 C 126.074219 230.488281 121.136719 225.546875 121.136719 219.453125 C 121.136719 213.359375 126.074219 208.417969 132.167969 208.417969 Z M 187.515625 240.371094 C 193.609375 240.371094 198.550781 245.3125 198.550781 251.40625 C 198.550781 257.5 193.609375 262.441406 187.515625 262.441406 C 181.421875 262.441406 176.480469 257.5 176.480469 251.40625 C 176.480469 245.3125 181.421875 240.371094 187.515625 240.371094 Z M 242.859375 208.417969 C 248.953125 208.417969 253.894531 213.359375 253.894531 219.453125 C 253.894531 225.546875 248.953125 230.488281 242.859375 230.488281 C 236.765625 230.488281 231.824219 225.546875 231.824219 219.453125 C 231.824219 213.359375 236.765625 208.417969 242.859375 208.417969 Z M 242.859375 144.511719 C 248.953125 144.511719 253.894531 149.453125 253.894531 155.546875 C 253.894531 161.640625 248.953125 166.582031 242.859375 166.582031 C 236.765625 166.582031 231.824219 161.640625 231.824219 155.546875 C 231.824219 149.453125 236.765625 144.511719 242.859375 144.511719 Z M 187.515625 112.558594 C 193.609375 112.558594 198.550781 117.5 198.550781 123.59375 C 198.550781 129.6875 193.609375 134.628906 187.515625 134.628906 C 181.421875 134.628906 176.480469 129.6875 176.480469 123.59375 C 176.480469 117.5 181.421875 112.558594 187.515625 112.558594 Z M 132.167969 144.511719 C 138.265625 144.511719 143.203125 149.453125 143.203125 155.546875 C 143.203125 161.640625 138.265625 166.582031 132.167969 166.582031 C 126.074219 166.582031 121.136719 161.640625 121.136719 155.546875 C 121.136719 149.453125 126.074219 144.511719 132.167969 144.511719 Z M 202.308594 129.347656 L 230.484375 145.617188 C 229.480469 146.867188 228.660156 148.273438 228.066406 149.789062 L 199.890625 133.523438 C 200.894531 132.273438 201.714844 130.867188 202.308594 129.347656 Z M 245.277344 171.234375 L 245.277344 203.765625 C 244.488281 203.644531 243.683594 203.582031 242.859375 203.582031 C 242.039062 203.582031 241.230469 203.644531 240.441406 203.765625 L 240.441406 171.234375 C 241.230469 171.355469 242.039062 171.417969 242.859375 171.417969 C 243.683594 171.417969 244.488281 171.355469 245.277344 171.234375 Z M 230.484375 229.382812 L 202.308594 245.652344 C 201.714844 244.132812 200.894531 242.726562 199.890625 241.476562 L 228.066406 225.210938 C 228.660156 226.726562 229.480469 228.132812 230.484375 229.382812 Z M 172.722656 245.652344 L 144.546875 229.382812 C 145.550781 228.132812 146.371094 226.726562 146.960938 225.210938 L 175.136719 241.476562 C 174.132812 242.726562 173.3125 244.132812 172.722656 245.652344 Z M 129.753906 203.765625 L 129.753906 171.234375 C 130.539062 171.355469 131.347656 171.417969 132.167969 171.417969 C 132.992188 171.417969 133.800781 171.355469 134.585938 171.234375 L 134.585938 203.765625 C 133.800781 203.644531 132.992188 203.582031 132.167969 203.582031 C 131.347656 203.582031 130.539062 203.644531 129.753906 203.765625 Z M 144.546875 145.617188 L 172.722656 129.347656 C 173.316406 130.867188 174.132812 132.273438 175.136719 133.523438 L 146.960938 149.789062 C 146.371094 148.273438 145.550781 146.867188 144.546875 145.617188 Z M 187.515625 152.816406 C 193.710938 152.816406 198.734375 156.347656 198.734375 164.492188 C 198.734375 172.632812 193.710938 179.234375 187.515625 179.234375 C 181.320312 179.234375 176.296875 172.632812 176.296875 164.492188 C 176.296875 156.347656 181.320312 152.816406 187.515625 152.816406 Z M 187.515625 152.816406 " fill-opacity="1" fill-rule="evenodd"/></g></svg>

<svg xmlns="http://www.w3.org/2000/svg" width="500" viewBox="0 0 375 375" height="500" version="1.0"><defs><clipPath id="a"><path d="M121.125 112.5h132.75v150h-132.75zm0 0"/></clipPath></defs><g clip-path="url(#a)"><path fill="#e08709" d="M166.156 216.293h5.477v-17.29a2.281 2.281 0 012.281-2.28 2.28 2.28 0 012.277 2.28v17.29h22.645v-17.29a2.284 2.284 0 012.281-2.28 2.28 2.28 0 012.278 2.28v17.29h5.48a3.58 3.58 0 003.57-3.57v-19.078c0-5.547-4.941-8.7-10.562-10.094-9.442-2.34-19.012-2.5-28.735 0-5.609 1.445-10.562 4.543-10.562 10.094v19.078a3.577 3.577 0 003.57 3.57zm-33.988-7.875c6.098 0 11.035 4.941 11.035 11.035s-4.937 11.035-11.035 11.035c-6.094 0-11.031-4.941-11.031-11.035s4.937-11.035 11.031-11.035zm55.348 31.953c6.093 0 11.035 4.941 11.035 11.035s-4.942 11.035-11.035 11.035c-6.094 0-11.036-4.941-11.036-11.035s4.942-11.035 11.036-11.035zm55.343-31.953c6.094 0 11.036 4.941 11.036 11.035s-4.942 11.035-11.036 11.035c-6.093 0-11.035-4.941-11.035-11.035s4.942-11.035 11.035-11.035zm0-63.906c6.094 0 11.036 4.941 11.036 11.035s-4.942 11.035-11.036 11.035c-6.093 0-11.035-4.941-11.035-11.035s4.942-11.035 11.035-11.035zm-55.343-31.953c6.093 0 11.035 4.941 11.035 11.035s-4.942 11.035-11.035 11.035c-6.094 0-11.036-4.941-11.036-11.035s4.942-11.035 11.036-11.035zm-55.348 31.953c6.098 0 11.035 4.941 11.035 11.035s-4.937 11.035-11.035 11.035c-6.094 0-11.031-4.941-11.031-11.035s4.937-11.035 11.031-11.035zm70.14-15.164l28.176 16.27a15.971 15.971 0 00-2.418 4.171l-28.175-16.266a15.93 15.93 0 002.418-4.175zm42.97 41.886v32.532a15.944 15.944 0 00-4.836 0v-32.532a15.944 15.944 0 004.835 0zm-14.794 58.149l-28.175 16.27a15.93 15.93 0 00-2.418-4.176l28.175-16.266a15.971 15.971 0 002.418 4.172zm-57.761 16.27l-28.176-16.27a15.85 15.85 0 002.414-4.172l28.176 16.266a15.81 15.81 0 00-2.414 4.175zm-42.97-41.887v-32.532a15.89 15.89 0 004.833 0v32.532a15.867 15.867 0 00-2.418-.184c-.82 0-1.629.063-2.414.184zm14.794-58.149l28.176-16.27a15.918 15.918 0 002.414 4.176L146.96 149.79a15.85 15.85 0 00-2.414-4.172zm42.969 7.2c6.195 0 11.218 3.53 11.218 11.675 0 8.14-5.023 14.742-11.218 14.742-6.196 0-11.22-6.601-11.22-14.742 0-8.144 5.024-11.676 11.22-11.676zm0 0" fill-rule="evenodd"/></g></svg>
